Gawaita/scalable/devices/media-optical.svg

<?xml version="1.0" encoding="UTF-8"?>
<svg height="128px" viewBox="0 0 128 128" width="128px" xmlns="http://www.w3.org/2000/svg" xmlns:xlink="http://www.w3.org/1999/xlink">
    <linearGradient id="a" gradientUnits="userSpaceOnUse" x1="37.000977" x2="123.273438" y1="121.84668" y2="121.84668">
        <stop offset="0" stop-color="#deddda"/>
        <stop offset="0.369815" stop-color="#deddda"/>
        <stop offset="0.788404" stop-color="#deddda"/>
        <stop offset="1" stop-color="#f6f5f4"/>
    </linearGradient>
    <clipPath id="b">
        <path d="m 8 7 h 112 v 114 h -112 z m 0 0"/>
    </clipPath>
    <clipPath id="c">
        <path d="m 64 4 c -33.136719 0 -60 26.414062 -60 59 s 26.863281 59 60 59 s 60 -26.414062 60 -59 s -26.863281 -59 -60 -59 z m 0 47.199219 c 6.625 0 12 5.285156 12 11.800781 s -5.375 11.800781 -12 11.800781 c -6.628906 0 -12 -5.285156 -12 -11.800781 s 5.371094 -11.800781 12 -11.800781 z m 0 0"/>
    </clipPath>
    <clipPath id="d">
        <path d="m 4 4 h 120 v 118 h -120 z m 0 0"/>
    </clipPath>
    <clipPath id="e">
        <path d="m 64 4 c -33.136719 0 -60 26.414062 -60 59 s 26.863281 59 60 59 s 60 -26.414062 60 -59 s -26.863281 -59 -60 -59 z m 0 47.199219 c 6.625 0 12 5.285156 12 11.800781 s -5.375 11.800781 -12 11.800781 c -6.628906 0 -12 -5.285156 -12 -11.800781 s 5.371094 -11.800781 12 -11.800781 z m 0 0"/>
    </clipPath>
    <clipPath id="f">
        <path d="m 64 36 h 60 v 50 h -60 z m 0 0"/>
    </clipPath>
    <clipPath id="g">
        <path d="m 64 4 c -33.136719 0 -60 26.414062 -60 59 s 26.863281 59 60 59 s 60 -26.414062 60 -59 s -26.863281 -59 -60 -59 z m 0 47.199219 c 6.625 0 12 5.285156 12 11.800781 s -5.375 11.800781 -12 11.800781 c -6.628906 0 -12 -5.285156 -12 -11.800781 s 5.371094 -11.800781 12 -11.800781 z m 0 0"/>
    </clipPath>
    <clipPath id="h">
        <path d="m 4 59 h 61 v 46 h -61 z m 0 0"/>
    </clipPath>
    <clipPath id="i">
        <path d="m 64 4 c -33.136719 0 -60 26.414062 -60 59 s 26.863281 59 60 59 s 60 -26.414062 60 -59 s -26.863281 -59 -60 -59 z m 0 47.199219 c 6.625 0 12 5.285156 12 11.800781 s -5.375 11.800781 -12 11.800781 c -6.628906 0 -12 -5.285156 -12 -11.800781 s 5.371094 -11.800781 12 -11.800781 z m 0 0"/>
    </clipPath>
    <path d="m 63.910156 3.691406 c -33.1875 0 -60.09375 26.902344 -60.089844 60.089844 c 0 33.1875 26.902344 60.09375 60.089844 60.09375 c 33.1875 -0.003906 60.089844 -26.90625 60.089844 -60.09375 c 0 -33.183594 -26.902344 -60.089844 -60.089844 -60.089844 z m 0 50.0625 c 6.710938 0 12.152344 5.441406 12.152344 12.152344 c 0 6.714844 -5.441406 12.152344 -12.152344 12.15625 c -6.710937 0 -12.152344 -5.441406 -12.15625 -12.15625 c 0 -6.710938 5.441406 -12.152344 12.15625 -12.152344 z m 0 0" fill="url(#a)"/>
    <g clip-path="url(#b)">
        <g clip-path="url(#c)">
            <path d="m 64 7.933594 c 30.925781 0 56 24.65625 56 55.066406 v 1.96875 c 0 30.410156 -25.074219 55.066406 -56 55.066406 c -30.929688 0 -56 -24.65625 -56 -55.066406 v -1.96875 c 0 -30.410156 25.070312 -55.066406 56 -55.066406 z m 0 0" fill="#d5d3cf"/>
        </g>
    </g>
    <g clip-path="url(#d)">
        <g clip-path="url(#e)">
            <path d="m 64 4 c -33.136719 0 -60 26.414062 -60 59 s 26.863281 59 60 59 s 60 -26.414062 60 -59 s -26.863281 -59 -60 -59 z m 0 48.03125 c 6.160156 0 11.15625 4.910156 11.15625 10.96875 s -4.996094 10.96875 -11.15625 10.96875 s -11.15625 -4.910156 -11.15625 -10.96875 s 4.996094 -10.96875 11.15625 -10.96875 z m 0 0" fill="#f6f5f4"/>
            <path d="m 85.352131 236.414077 c 0 11.476431 -9.558663 20.775956 -21.351717 20.775956 s -21.351717 -9.299525 -21.351717 -20.775956 s 9.558663 -20.775955 21.351717 -20.775955 s 21.351717 9.299524 21.351717 20.775955 z m 0 0" fill="none" stroke="#000000" stroke-opacity="0.129412" stroke-width="9.29268" transform="matrix(0.999993 0 0 0.983333 0.000049 -169.473819)"/>
        </g>
    </g>
    <g clip-path="url(#f)">
        <g clip-path="url(#g)">
            <path d="m 128 36.742188 l -64 26.257812 l 73.664062 22.761719" fill-opacity="0.05098"/>
        </g>
    </g>
    <g clip-path="url(#h)">
        <g clip-path="url(#i)">
            <path d="m 9.113281 104.816406 l 54.910157 -41.648437 l -77.144532 -3.242188" fill-opacity="0.05098"/>
        </g>
    </g>
</svg>

<svg width="128" height="128" viewBox="0 0 128 128" fill="none" xmlns="http://www.w3.org/2000/svg">
<mask id="mask0_1_3515" style="mask-type:luminance" maskUnits="userSpaceOnUse" x="8" y="7" width="112" height="114">
<path d="M8 7H120V121H8V7Z" fill="white"/>
</mask>
<g mask="url(#mask0_1_3515)">
<mask id="mask1_1_3515" style="mask-type:luminance" maskUnits="userSpaceOnUse" x="4" y="4" width="120" height="118">
<path d="M64 4C30.8633 4 4 30.4141 4 63C4 95.5859 30.8633 122 64 122C97.1367 122 124 95.5859 124 63C124 30.4141 97.1367 4 64 4ZM64 51.1992C70.625 51.1992 76 56.4844 76 63C76 69.5156 70.625 74.8008 64 74.8008C57.3711 74.8008 52 69.5156 52 63C52 56.4844 57.3711 51.1992 64 51.1992Z" fill="white"/>
</mask>
<g mask="url(#mask1_1_3515)">
<path d="M64 7.93359C94.9258 7.93359 120 32.5898 120 63V64.9688C120 95.3789 94.9258 120.035 64 120.035C33.0703 120.035 8 95.3789 8 64.9688V63C8 32.5898 33.0703 7.93359 64 7.93359Z" fill="#D5D3CF"/>
</g>
</g>
<mask id="mask2_1_3515" style="mask-type:luminance" maskUnits="userSpaceOnUse" x="4" y="4" width="120" height="118">
<path d="M4 4H124V122H4V4Z" fill="white"/>
</mask>
<g mask="url(#mask2_1_3515)">
<mask id="mask3_1_3515" style="mask-type:luminance" maskUnits="userSpaceOnUse" x="4" y="4" width="120" height="118">
<path d="M64 4C30.8633 4 4 30.4141 4 63C4 95.5859 30.8633 122 64 122C97.1367 122 124 95.5859 124 63C124 30.4141 97.1367 4 64 4ZM64 51.1992C70.625 51.1992 76 56.4844 76 63C76 69.5156 70.625 74.8008 64 74.8008C57.3711 74.8008 52 69.5156 52 63C52 56.4844 57.3711 51.1992 64 51.1992Z" fill="white"/>
</mask>
<g mask="url(#mask3_1_3515)">
<path d="M64 4C30.8633 4 4 30.4141 4 63C4 95.5859 30.8633 122 64 122C97.1367 122 124 95.5859 124 63C124 30.4141 97.1367 4 64 4ZM64 52.0312C70.1602 52.0312 75.1562 56.9414 75.1562 63C75.1562 69.0586 70.1602 73.9688 64 73.9688C57.8398 73.9688 52.8438 69.0586 52.8438 63C52.8438 56.9414 57.8398 52.0312 64 52.0312Z" fill="#F6F5F4"/>
<path d="M85.3516 63C85.3516 74.2851 75.793 83.4297 64 83.4297C52.207 83.4297 42.6484 74.2851 42.6484 63C42.6484 51.7148 52.207 42.5703 64 42.5703C75.793 42.5703 85.3516 51.7148 85.3516 63Z" stroke="black" stroke-opacity="0.129412" stroke-width="9.21488"/>
</g>
</g>
<mask id="mask4_1_3515" style="mask-type:luminance" maskUnits="userSpaceOnUse" x="64" y="36" width="60" height="50">
<path d="M64 36H124V86H64V36Z" fill="white"/>
</mask>
<g mask="url(#mask4_1_3515)">
<mask id="mask5_1_3515" style="mask-type:luminance" maskUnits="userSpaceOnUse" x="4" y="4" width="120" height="118">
<path d="M64 4C30.8633 4 4 30.4141 4 63C4 95.5859 30.8633 122 64 122C97.1367 122 124 95.5859 124 63C124 30.4141 97.1367 4 64 4ZM64 51.1992C70.625 51.1992 76 56.4844 76 63C76 69.5156 70.625 74.8008 64 74.8008C57.3711 74.8008 52 69.5156 52 63C52 56.4844 57.3711 51.1992 64 51.1992Z" fill="white"/>
</mask>
<g mask="url(#mask5_1_3515)">
<path d="M128 36.7422L64 63L137.664 85.7617" fill="black" fill-opacity="0.05098"/>
</g>
</g>
<mask id="mask6_1_3515" style="mask-type:luminance" maskUnits="userSpaceOnUse" x="4" y="59" width="61" height="46">
<path d="M4 59H65V105H4V59Z" fill="white"/>
</mask>
<g mask="url(#mask6_1_3515)">
<mask id="mask7_1_3515" style="mask-type:luminance" maskUnits="userSpaceOnUse" x="4" y="4" width="120" height="118">
<path d="M64 4C30.8633 4 4 30.4141 4 63C4 95.5859 30.8633 122 64 122C97.1367 122 124 95.5859 124 63C124 30.4141 97.1367 4 64 4ZM64 51.1992C70.625 51.1992 76 56.4844 76 63C76 69.5156 70.625 74.8008 64 74.8008C57.3711 74.8008 52 69.5156 52 63C52 56.4844 57.3711 51.1992 64 51.1992Z" fill="white"/>
</mask>
<g mask="url(#mask7_1_3515)">
<path d="M9.11328 104.816L64.0234 63.168L-13.1211 59.9258" fill="black" fill-opacity="0.05098"/>
</g>
</g>
<path d="M4 64C4 30.8629 30.8629 4 64 4C97.1371 4 124 30.8629 124 64C124 97.1371 97.1371 124 64 124C30.8629 124 4 97.1371 4 64Z" fill="url(#paint0_radial_1_3515)" fill-opacity="0.48" style="mix-blend-mode:color"/>
<g clip-path="url(#paint1_angular_1_3515_clip_path)" data-figma-skip-parse="true"><g transform="matrix(0.0048 0.0654 -0.0654 0.0048 64 64)"><foreignObject x="-995.814" y="-995.814" width="1991.63" height="1991.63"><div xmlns="http://www.w3.org/1999/xhtml" style="background:conic-gradient(from 90deg,rgba(116, 116, 116, 1) 0deg,rgba(0, 0, 0, 1) 20.7186deg,rgba(255, 255, 255, 1) 65.5535deg,rgba(0, 0, 0, 1) 114.293deg,rgba(255, 255, 255, 1) 155.061deg,rgba(0, 0, 0, 1) 211.497deg,rgba(255, 255, 255, 1) 260.502deg,rgba(0, 0, 0, 1) 295.915deg,rgba(255, 255, 255, 1) 335.35deg,rgba(116, 116, 116, 1) 360deg);height:100%;width:100%;opacity:0.7"></div></foreignObject></g></g><path d="M4 64C4 30.8629 30.8629 4 64 4C97.1371 4 124 30.8629 124 64C124 97.1371 97.1371 124 64 124C30.8629 124 4 97.1371 4 64Z" data-figma-gradient-fill="{&#34;type&#34;:&#34;GRADIENT_ANGULAR&#34;,&#34;stops&#34;:[{&#34;color&#34;:{&#34;r&#34;:0.0,&#34;g&#34;:0.0,&#34;b&#34;:0.0,&#34;a&#34;:1.0},&#34;position&#34;:0.057551559060811996},{&#34;color&#34;:{&#34;r&#34;:1.0,&#34;g&#34;:1.0,&#34;b&#34;:1.0,&#34;a&#34;:1.0},&#34;position&#34;:0.18209300935268402},{&#34;color&#34;:{&#34;r&#34;:0.0,&#34;g&#34;:0.0,&#34;b&#34;:0.0,&#34;a&#34;:1.0},&#34;position&#34;:0.31748029589653015},{&#34;color&#34;:{&#34;r&#34;:1.0,&#34;g&#34;:1.0,&#34;b&#34;:1.0,&#34;a&#34;:1.0},&#34;position&#34;:0.43072608113288879},{&#34;color&#34;:{&#34;r&#34;:0.0,&#34;g&#34;:0.0,&#34;b&#34;:0.0,&#34;a&#34;:1.0},&#34;position&#34;:0.58749228715896606},{&#34;color&#34;:{&#34;r&#34;:1.0,&#34;g&#34;:1.0,&#34;b&#34;:1.0,&#34;a&#34;:1.0},&#34;position&#34;:0.72361612319946289},{&#34;color&#34;:{&#34;r&#34;:0.0,&#34;g&#34;:0.0,&#34;b&#34;:0.0,&#34;a&#34;:1.0},&#34;position&#34;:0.82198703289031982},{&#34;color&#34;:{&#34;r&#34;:1.0,&#34;g&#34;:1.0,&#34;b&#34;:1.0,&#34;a&#34;:1.0},&#34;position&#34;:0.93152672052383423}],&#34;stopsVar&#34;:[{&#34;color&#34;:{&#34;r&#34;:0.0,&#34;g&#34;:0.0,&#34;b&#34;:0.0,&#34;a&#34;:1.0},&#34;position&#34;:0.057551559060811996},{&#34;color&#34;:{&#34;r&#34;:1.0,&#34;g&#34;:1.0,&#34;b&#34;:1.0,&#34;a&#34;:1.0},&#34;position&#34;:0.18209300935268402},{&#34;color&#34;:{&#34;r&#34;:0.0,&#34;g&#34;:0.0,&#34;b&#34;:0.0,&#34;a&#34;:1.0},&#34;position&#34;:0.31748029589653015},{&#34;color&#34;:{&#34;r&#34;:1.0,&#34;g&#34;:1.0,&#34;b&#34;:1.0,&#34;a&#34;:1.0},&#34;position&#34;:0.43072608113288879},{&#34;color&#34;:{&#34;r&#34;:0.0,&#34;g&#34;:0.0,&#34;b&#34;:0.0,&#34;a&#34;:1.0},&#34;position&#34;:0.58749228715896606},{&#34;color&#34;:{&#34;r&#34;:1.0,&#34;g&#34;:1.0,&#34;b&#34;:1.0,&#34;a&#34;:1.0},&#34;position&#34;:0.72361612319946289},{&#34;color&#34;:{&#34;r&#34;:0.0,&#34;g&#34;:0.0,&#34;b&#34;:0.0,&#34;a&#34;:1.0},&#34;position&#34;:0.82198703289031982},{&#34;color&#34;:{&#34;r&#34;:1.0,&#34;g&#34;:1.0,&#34;b&#34;:1.0,&#34;a&#34;:1.0},&#34;position&#34;:0.93152672052383423}],&#34;transform&#34;:{&#34;m00&#34;:9.5999994277954102,&#34;m01&#34;:-130.80000305175781,&#34;m02&#34;:124.59999847412109,&#34;m10&#34;:130.80000305175781,&#34;m11&#34;:9.5999994277954102,&#34;m12&#34;:-6.1999998092651367},&#34;opacity&#34;:0.69999998807907104,&#34;blendMode&#34;:&#34;SCREEN&#34;,&#34;visible&#34;:true}" style="mix-blend-mode:screen"/>
<rect x="4" y="4" width="120" height="118" rx="59" fill="#ABABAB" style="mix-blend-mode:color-burn"/>
<defs>
<clipPath id="paint1_angular_1_3515_clip_path"><path d="M4 64C4 30.8629 30.8629 4 64 4C97.1371 4 124 30.8629 124 64C124 97.1371 97.1371 124 64 124C30.8629 124 4 97.1371 4 64Z" style="mix-blend-mode:screen"/></clipPath><radialGradient id="paint0_radial_1_3515" cx="0" cy="0" r="1" gradientUnits="userSpaceOnUse" gradientTransform="translate(4 4) rotate(45) scale(169.706)">
<stop offset="0.139342" stop-color="#1B84AB"/>
<stop offset="0.321267" stop-color="#BCCD55"/>
<stop offset="0.548077" stop-color="#FEB0FE"/>
<stop offset="0.609414" stop-color="#ABB3FC"/>
<stop offset="0.778846" stop-color="#58C4F6"/>
<stop offset="1" stop-color="#5DF7A4"/>
</radialGradient>
</defs>
</svg>
